src/topics/icons/flyjs.svg

<svg height="157" preserveAspectRatio="xMidYMid" viewBox="0 0 256 157" width="256" xmlns="http://www.w3.org/2000/svg"><g fill="#07ccff"><path d="m211.686 134.995c-3.513-3.053-7.026-6.105-10.539-9.158-.703-.61-1.395-1.234-2.111-1.828-1.303-1.082-1.731-1.045-2.848.163-.386.418-.758.848-1.132 1.278-2.679 3.083-5.353 6.172-8.04 9.25-.814.933-.731 1.217-1.687.391-3.599-3.111-7.477-6.511-11.065-9.635-13.18-11.479-26.351-22.969-39.537-34.441-10.807-9.403-21.627-18.789-32.446-28.177-4.609-3.999-9.157-8.073-13.867-11.949-4.977-4.097-10.778-5.251-17.062-4.097-4.994.917-8.952 3.556-12.235 7.365-6.482 7.52-13.011 15.001-19.522 22.497-2.611 3.006-5.224 6.01-7.843 9.01-.313.359-.55.964-1.209.386-2.33-2.048-4.674-4.081-7.021-6.111-.39-.337-.429-.64-.075-1.033.692-.769 1.357-1.561 2.035-2.342 9.77-11.241 19.541-22.481 29.307-33.725 1.262-1.454 1.21-2.082-.247-3.351-4.134-3.601-8.277-7.19-12.409-10.791-2.02-1.76-2.302-1.757-4.099.308-7.094 8.153-14.185 16.31-21.269 24.472-3.762 4.335-7.591 8.616-11.237 13.047-4.097 4.978-5.282 10.748-4.085 17.046.939 4.936 3.519 8.862 7.28 12.112 8.178 7.067 16.326 14.167 24.484 21.256 15.262 13.263 30.522 26.528 45.786 39.789 1.431 1.244 2.067 1.183 3.343-.284 1.968-2.263 3.935-4.527 5.902-6.792 1.762-2.03 3.532-4.055 5.28-6.099 1.079-1.262 1.015-1.881-.233-3-.077-.07-.159-.132-.237-.2-13.509-11.733-27.017-23.467-40.525-35.2-1.522-1.323-3.037-2.655-4.572-3.963-.438-.374-.549-.699-.103-1.144.329-.327.606-.706.911-1.057 4.815-5.544 9.631-11.088 14.448-16.629 3.834-4.41 7.669-8.82 11.508-13.225.817-.936.836-.935 1.79-.111 1.761 1.521 3.522 3.042 5.265 4.583 8.133 7.189 16.39 14.235 24.487 21.468 11.377 10.161 22.998 20.048 34.514 30.054 10.383 9.021 20.767 18.044 31.15 27.066 3.972 3.452 8.519 5.407 13.405 5.33 6.682.038 11.978-2.154 16.151-6.813 3.692-4.121 7.291-8.325 10.912-12.509.883-1.021.817-1.765-.124-2.69-.184-.181-.384-.347-.579-.517"/><path d="m254.881 70.128c-1.404-3.263-3.895-5.682-6.538-7.962-5.169-4.459-10.317-8.942-15.47-13.42-16.161-14.043-32.319-28.088-48.48-42.132-1.912-1.662-3.819-3.331-5.751-4.97-1.07-.907-1.702-.851-2.67.136-.145.147-.276.308-.412.464-3.666 4.214-7.331 8.428-10.995 12.643-.203.234-.401.475-.578.728-.443.636-.392 1.275.082 1.858.259.318.583.585.895.856 12.922 11.226 25.847 22.45 38.769 33.675 2.26 1.963 4.512 3.936 6.865 5.99-9.421 10.843-18.771 21.603-28.162 32.41-.516-.43-.918-.751-1.304-1.089-9.478-8.326-19.04-16.553-28.503-24.897-15.438-13.612-31.043-27.035-46.58-40.535-6.636-5.766-13.311-11.488-19.908-17.299-8.411-7.408-21.969-6.574-29.33 1.885-3.531 4.057-7.066 8.111-10.58 12.182-1.228 1.421-1.167 1.998.238 3.219 4.254 3.698 8.511 7.393 12.77 11.086 1.465 1.27 2.07 1.232 3.347-.236 2.954-3.394 5.899-6.796 8.847-10.195.958-1.105.959-1.108 2.015-.19 16.231 14.12 32.456 28.246 48.693 42.358 14.13 12.28 28.27 24.548 42.414 36.812 1.991 1.727 3.908 3.547 6.059 5.082 7.915 5.651 20.49 4.938 27.805-3.646 4.83-5.667 9.752-11.256 14.635-16.879 4.306-4.959 8.613-9.918 12.925-14.872.907-1.042.929-1.043 1.921-.186 2.113 1.827 4.201 3.682 6.33 5.489.556.472.802.719.134 1.387-.976 1.07-1.906 2.181-2.855 3.274-9.462 10.893-18.925 21.783-28.383 32.679-1.203 1.386-1.168 2.047.202 3.242 4.287 3.739 8.618 7.428 12.867 11.21 1.248 1.11 2.311 1.055 3.39-.245 2.41-2.904 4.929-5.718 7.405-8.568 8.242-9.486 16.53-18.933 24.711-28.472 5.917-6.899 6.73-14.623 3.18-22.872"/></g></svg>

<?xml version="1.0" encoding="UTF-8" standalone="no"?>
<svg width="256px" height="157px" viewBox="0 0 256 157" version="1.1" xmlns="http://www.w3.org/2000/svg" xmlns:xlink="http://www.w3.org/1999/xlink" preserveAspectRatio="xMidYMid">
	<g fill="#07CCFF">
		<path d="M211.686,134.995 C208.173,131.942 204.66,128.89 201.147,125.837 C200.444,125.227 199.752,124.603 199.036,124.009 C197.733,122.927 197.305,122.964 196.188,124.172 C195.802,124.59 195.43,125.02 195.056,125.45 C192.377,128.533 189.703,131.622 187.016,134.7 C186.202,135.633 186.285,135.917 185.329,135.091 C181.73,131.98 177.852,128.58 174.264,125.456 C161.084,113.977 147.913,102.487 134.727,91.015 C123.92,81.612 113.1,72.226 102.281,62.838 C97.672,58.839 93.124,54.765 88.414,50.889 C83.437,46.792 77.636,45.638 71.352,46.792 C66.358,47.709 62.4,50.348 59.117,54.157 C52.635,61.677 46.106,69.158 39.595,76.654 C36.984,79.66 34.371,82.664 31.752,85.664 C31.439,86.023 31.202,86.628 30.543,86.05 C28.213,84.002 25.869,81.969 23.522,79.939 C23.132,79.602 23.093,79.299 23.447,78.906 C24.139,78.137 24.804,77.345 25.482,76.564 C35.252,65.323 45.023,54.083 54.789,42.839 C56.051,41.385 55.999,40.757 54.542,39.488 C50.408,35.887 46.265,32.298 42.133,28.697 C40.113,26.937 39.831,26.94 38.034,29.005 C30.94,37.158 23.849,45.315 16.765,53.477 C13.003,57.812 9.174,62.093 5.528,66.524 C1.431,71.502 0.246,77.272 1.443,83.57 C2.382,88.506 4.962,92.432 8.723,95.682 C16.901,102.749 25.049,109.849 33.207,116.938 C48.469,130.201 63.729,143.466 78.993,156.727 C80.424,157.971 81.06,157.91 82.336,156.443 C84.304,154.18 86.271,151.916 88.238,149.651 C90,147.621 91.77,145.596 93.518,143.552 C94.597,142.29 94.533,141.671 93.285,140.552 C93.208,140.482 93.126,140.42 93.048,140.352 C79.539,128.619 66.031,116.885 52.523,105.152 C51.001,103.829 49.486,102.497 47.951,101.189 C47.513,100.815 47.402,100.49 47.848,100.045 C48.177,99.718 48.454,99.339 48.759,98.988 C53.574,93.444 58.39,87.9 63.207,82.359 C67.041,77.949 70.876,73.539 74.715,69.134 C75.532,68.198 75.551,68.199 76.505,69.023 C78.266,70.544 80.027,72.065 81.77,73.606 C89.903,80.795 98.16,87.841 106.257,95.074 C117.634,105.235 129.255,115.122 140.771,125.128 C151.154,134.149 161.538,143.172 171.921,152.194 C175.893,155.646 180.44,157.601 185.326,157.524 C192.008,157.562 197.304,155.37 201.477,150.711 C205.169,146.59 208.768,142.386 212.389,138.202 C213.272,137.181 213.206,136.437 212.265,135.512 C212.081,135.331 211.881,135.165 211.686,134.995"></path>
		<path d="M254.881,70.128 C253.477,66.865 250.986,64.446 248.343,62.166 C243.174,57.707 238.026,53.224 232.873,48.746 C216.712,34.703 200.554,20.658 184.393,6.614 C182.481,4.952 180.574,3.283 178.642,1.644 C177.572,0.737 176.94,0.793 175.972,1.78 C175.827,1.927 175.696,2.088 175.56,2.244 C171.894,6.458 168.229,10.672 164.565,14.887 C164.362,15.121 164.164,15.362 163.987,15.615 C163.544,16.251 163.595,16.89 164.069,17.473 C164.328,17.791 164.652,18.058 164.964,18.329 C177.886,29.555 190.811,40.779 203.733,52.004 C205.993,53.967 208.245,55.94 210.598,57.994 C201.177,68.837 191.827,79.597 182.436,90.404 C181.92,89.974 181.518,89.653 181.132,89.315 C171.654,80.989 162.092,72.762 152.629,64.418 C137.191,50.806 121.586,37.383 106.049,23.883 C99.413,18.117 92.738,12.395 86.141,6.584 C77.73,-0.824 64.172,0.01 56.811,8.469 C53.28,12.526 49.745,16.58 46.231,20.651 C45.003,22.072 45.064,22.649 46.469,23.87 C50.723,27.568 54.98,31.263 59.239,34.956 C60.704,36.226 61.309,36.188 62.586,34.72 C65.54,31.326 68.485,27.924 71.433,24.525 C72.391,23.42 72.392,23.417 73.448,24.335 C89.679,38.455 105.904,52.581 122.141,66.693 C136.271,78.973 150.411,91.241 164.555,103.505 C166.546,105.232 168.463,107.052 170.614,108.587 C178.529,114.238 191.104,113.525 198.419,104.941 C203.249,99.274 208.171,93.685 213.054,88.062 C217.36,83.103 221.667,78.144 225.979,73.19 C226.886,72.148 226.908,72.147 227.9,73.004 C230.013,74.831 232.101,76.686 234.23,78.493 C234.786,78.965 235.032,79.212 234.364,79.88 C233.388,80.95 232.458,82.061 231.509,83.154 C222.047,94.047 212.584,104.937 203.126,115.833 C201.923,117.219 201.958,117.88 203.328,119.075 C207.615,122.814 211.946,126.503 216.195,130.285 C217.443,131.395 218.506,131.34 219.585,130.04 C221.995,127.136 224.514,124.322 226.99,121.472 C235.232,111.986 243.52,102.539 251.701,93 C257.618,86.101 258.431,78.377 254.881,70.128"></path>
	</g>
</svg>
